X:1
T:D Minor William Billings, 1770 (Revised 1778)
T:Nahum Tate and Nicholas Brady, 1698 (Psalm 64)  86. 86. (C. M.)
T:Princetown
T:No Copyright. Transcribed from the Singing-Master's Assistant, 1778.
T:No Copyright.  Transcribed from The Singing-Master's Assistant, 1778.
T:No Copyright.  Transcribed from The Singing-Master's Assistant, 1778.
Z:No Copyright.  Transcribed from The Singing-Master's Assistant, 1778.
%%score [ 1 2 3 4 ]
L:1/8
M:3/2
K:F
V:1 treble nm="Treble" snm="Tr."
V:2 treble nm="Counter" snm="C."
V:3 treble-8 nm="Tenor" snm="T."
V:4 bass nm="Bass" snm="B."
V:1
 A4 | (A3 B c4) d4 | (c4 B4) (A2 d2) | (f3 e) d4 e4 | f8 f4 | (f3 e) d4 A4 | (A3 B) c4 d4 | %7
 ^c8 c4 | (d3 c) B4 c4 | (A4 B4) A4 | (A3 B) c4 d4 | ^c8 c4 | (A3 B) c4 d4 | (c4 B4) A4 | A8 |] %15
V:2
 D4 | (A4 G4) (A2 F2) | (E3 F) G4 A4 | (A3 G) F4 G4 | A8 A4 | (A4 G4) E4 | (F4 G4) A4 | A8 A4 | %8
w: 1.~Lord,|hear * the *|voice * * of|my * * com-|plaint, To|my * re-|quest * give|ear; Pre-|
 (A4 G4) E4 | (F4 G4) E4 | (D4 E4) F4 | A8 E4 | (F4 G4) A4 | G8 E4 | F8 |] %15
w: serve * my|life * from|cru- * el|foes, And|free * my|soul from|fear.|
V:3
 A4 | (d4 e4) f4 | d8 d4 | d8 ^c4 | d8 d4 | (A4 d4) ^c4 | (d4 e4) f4 | e8 e4 | (f3 e) d4 A4 | %9
 d8 (3(c2 d2) e2 | (f4 g4) f4 | e8 A4 | (d4 e4) f4 | (e4 d4) ^c4 | d8 |] %15
V:4
 D,4 | (F,4 E,4) D,4 | (A,4 G,4) F,4 | (D,3 E,) F,4 E,4 | D,8 D,4 | (F,4 G,4) A,4 | (F,4 E,4) D,4 | %7
 [A,,A,]8 [A,,A,]4 | ([F,,F,]4 [G,,G,]4) [A,,A,]4 | (D,4 G,4) A,4 | (F,4 E,4) D,4 | [A,,A,]8 A,4 | %12
 (F,4 E,4) D,4 | (E,3 F,) G,4 A,4 | D,8 |] %15

